src/components/footer/cart.svg

<svg viewBox="0 0 16 14" xmlns="http://www.w3.org/2000/svg"><g fill-rule="evenodd" transform=""><path d="m6.45510811 11.7144282c-.05188128-.0753007-.11272693-.1476507-.18235021-.2171992-.13887302-.1389851-.29526391-.2432706-.46891119-.3128565-.18533833-.0698847-.37639144-.104547-.57293523-.104547l-.00056027-.0005602c-.04642797.0005602-.09554524.0033243-.14794943.0090017-.05214275.0054533-.10155882.0112428-.14794943.0172191-.04639061.0059762-.09251975.0177419-.13894772.0349237-.04639061.0174805-.09278122.0319355-.13891036.0434024-.0581937.0229339-.11597653.051844-.17387142.086805l-.13894772.104547c-.05789489.034961-.10973881.075338-.15616678.121766-.06958591.0695485-.13046893.1422346-.18231285.2172365-.05188128.075338-.09524643.1534028-.12994599.2344556-.06988472.1856371-.10454695.3739636-.10454695.5647179s.03492369.3731045.10454695.5470133c.06954855.1624418.17383405.31887.31281913.4692473.13887302.1274808.29526391.2317663.46917266.3130806.17334848.0696233.36443895.1045469.57323406.1045469.19706671 0 .38543051-.0376877.56471789-.1127269.17936209-.0753754.33851699-.1765981.47738999-.3041162.13898506-.1503773.24327056-.3068055.31281914-.46921.08109019-.1733112.121766-.355624.121766-.5470506 0-.1913146-.04041437-.3793422-.121766-.5647179-.0351105-.0815384-.07855033-.1599019-.13039427-.2349785z"/><path d="m15.4604144 2.6914173c-.0349237-.05785753-.0810155-.10973882-.1389478-.15612943-.0578201-.04612914-.1271819-.08680497-.2082348-.12172866-.1618815-.08109019-.3936105-.121766-.6947012-.121766l-.0010085.0002988h-10.76863498l-.08680498-.59067721-.06958591-.4517295v-.08680497c-.02315794-.1274808-.04067583-.21424842-.05214275-.26067639l-.08680497-.27785808c-.02293384-.09255711-.06932445-.19105311-.13898507-.2950398-.04635324-.04612915-.09554523-.08680498-.14765062-.12172867-.05236685-.03496103-.10723626-.06962327-.16516849-.10454694-.12688317-.05789489-.29477834-.08680497-.50331197-.08680497h-1.59786144c-.11593918 0-.22026202.01744316-.31274441.05240421-.09281858.03440076-.17969825.08082873-.26071372.13838745-.13894773.13894773-.20853364.31281914-.20853364.52135275 0 .04639061.00302548.09853336.00874026.15612942.00597625.05785753.01475385.11571506.02618343.17387142.01142958.05815635.0316741.11627532.06058418.17387141.02891009.05785753.05516822.12142985.07836352.19105311.08105283.1042855.17383405.19680525.27782074.27789544.09281858.06958592.22029937.10450961.38244239.10450961h1.18101827l.67751953 3.49079997.26067639 1.33722239.22575269 1.19823733.17387141.88605317.08680498.45172949c.0231953.11545361.06387113.28334876.12172866.50334931.03499839.09308003.07257404.179885.1127643.26067639.040377.08075405.08377949.15612945.12994599.22571535.09251975.1504146.20849627.2718445.347444.3647004.04586767.0346996.09528377.0608083.14768798.0783635.05266566.0174432.11056055.0318982.17383405.0433651.06334821.011467.129946.0172191.19956927.0172191h8.25005821c.3012774 0 .4981201-.0753754.5906398-.2257527.1042855-.1503773.1561668-.3300008.1561668-.5384971 0-.42834743-.2546628-.6425585-.7643245-.6425585h-7.91949709l-.24353203-1.38962659h8.26731462c.3007545 0 .5557161-.08109019.7642498-.24319586.1045469-.08079136.2000548-.19355566.2868971-.33851699.0865062-.1448866.1648697-.31573255.2344556-.51223898.0346996-.10432284.1274435-.3764288.2778581-.81642991l.3647004-1.02496353.3302623-.95534027.2085337-.57289789c.011691-.03466222.0204312-.06958591.0261834-.10454694.0054533-.03466223.0112054-.0726114.0171817-.11272694.0060136-.04041436.009039-.08381685.009039-.12994599.011467-.1270326-.0174431-.24876126-.0871037-.36447631z"/><path d="m12.820968 11.5321153c-.1274808-.1389103-.2839464-.2431958-.4692474-.3130432-.0925571-.0346996-.188065-.060883-.2868598-.0783635-.0985707-.0174806-.1941159-.0262208-.2868971-.0262208l.0005229.0005976c-.0693245-.0005976-.1358849.0023905-.1995319.0087029-.0635723.0062751-.1274808.0180408-.1913146.0352225-.0639085.0168829-.1244927.0370901-.1823502.0605468-.0810528.0346996-.1624045.0781021-.2434947.129946-.0810902.0518813-.1506761.112727-.2085336.1823502-.1389851.1389851-.2431959.2896239-.3127818.4520657-.0463906.0924824-.0781021.185301-.0955452.2778208-.0175552.0925571-.0262208.1853383-.0262208.277858 0 .1968053.0406758.3821436.121766.5557536.0695859.162143.1737967.3185339.3127818.4692473.1159765.1154536.2666899.213987.4517295.2950025.1738714.0810528.3649618.121766.5729726.121766.207936 0 .3992879-.040377.5729352-.121766.1853383-.0693245.3414677-.1675964.4689112-.2950025.138985-.150452.248948-.3068429.3300382-.4692473.034961-.0807914.0608456-.1705845.0783261-.2691552.0175179-.0985334.0262582-.1940786.0262582-.2868598 0-.19688-.0350358-.382181-.1045843-.5557536-.0799697-.1618442-.1899326-.3125576-.3288803-.451468z"/></g></svg>

<?xml version="1.0" encoding="UTF-8"?>
<svg viewBox="0 0 16 14" version="1.1" xmlns="http://www.w3.org/2000/svg" xmlns:xlink="http://www.w3.org/1999/xlink">
    <!-- Generator: Sketch 47 (45396) - http://www.bohemiancoding.com/sketch -->
    <title>购买量</title>
    <desc>Created with Sketch.</desc>
    <defs></defs>
    <g id="Symbols" stroke="none" stroke-width="1" fill-rule="evenodd">
        <g id="底部导航" transform="translate(-225.000000, -8.000000)">
            <g id="Group">
                <g id="购买量" transform="translate(225.000000, 8.000000)">
                    <g id="Group">
                        <path d="M6.45510811,11.7144282 C6.40322683,11.6391275 6.34238118,11.5667775 6.2727579,11.497229 C6.13388488,11.3582439 5.97749399,11.2539584 5.80384671,11.1843725 C5.61850838,11.1144878 5.42745527,11.0798255 5.23091148,11.0798255 L5.23035121,11.0792653 C5.18392324,11.0798255 5.13480597,11.0825896 5.08240178,11.088267 C5.03025903,11.0937203 4.98084296,11.0995098 4.93445235,11.1054861 C4.88806174,11.1114623 4.8419326,11.123228 4.79550463,11.1404098 C4.74911402,11.1578903 4.70272341,11.1723453 4.65659427,11.1838122 C4.59840057,11.2067461 4.54061774,11.2356562 4.48272285,11.2706172 L4.34377513,11.3751642 C4.28588024,11.4101252 4.23403632,11.4505022 4.18760835,11.4969302 C4.11802244,11.5664787 4.05713942,11.6391648 4.0052955,11.7141667 C3.95341422,11.7895047 3.91004907,11.8675695 3.87534951,11.9486223 C3.80546479,12.1342594 3.77080256,12.3225859 3.77080256,12.5133402 C3.77080256,12.7040945 3.80572625,12.8864447 3.87534951,13.0603535 C3.94489806,13.2227953 4.04918356,13.3792235 4.18816864,13.5296008 C4.32704166,13.6570816 4.48343255,13.7613671 4.6573413,13.8426814 C4.83068978,13.9123047 5.02178025,13.9472283 5.23057536,13.9472283 C5.42764207,13.9472283 5.61600587,13.9095406 5.79529325,13.8345014 C5.97465534,13.759126 6.13381024,13.6579033 6.27268324,13.5303852 C6.4116683,13.3800079 6.5159538,13.2235797 6.58550238,13.0611752 C6.66659257,12.887864 6.70726838,12.7055512 6.70726838,12.5141246 C6.70726838,12.32281 6.66685401,12.1347824 6.58550238,11.9494067 C6.55039188,11.8678683 6.50695205,11.7895048 6.45510811,11.7144282 L6.45510811,11.7144282 L6.45510811,11.7144282 L6.45510811,11.7144282 Z" id="Shape"></path>
                        <path d="M15.4604144,2.6914173 C15.4254907,2.63355977 15.3793989,2.58167848 15.3214666,2.53528787 C15.2636465,2.48915873 15.1942847,2.4484829 15.1132318,2.41355921 C14.9513503,2.33246902 14.7196213,2.29179321 14.4185306,2.29179321 L14.4175221,2.29209201 L3.64888712,2.29209201 L3.56208214,1.7014148 L3.49249623,1.2496853 L3.49249623,1.16288033 C3.46933829,1.03539953 3.4518204,0.948631913 3.44035348,0.902203943 L3.35354851,0.62434586 C3.33061467,0.531788746 3.28422406,0.433292749 3.21456344,0.329306057 C3.1682102,0.283176913 3.11901821,0.242501084 3.06691282,0.207577394 C3.01454597,0.172616364 2.95967656,0.137954119 2.90174433,0.103030451 C2.77486116,0.0451355612 2.60696599,0.0162254776 2.39843236,0.0162254776 L0.800570922,0.0162254776 C0.68463174,0.0162254776 0.580308901,0.0336686418 0.48782651,0.0686296925 C0.395007931,0.103030451 0.308128257,0.149458421 0.227112785,0.207017143 C0.0881650627,0.345964866 0.0185791493,0.519836278 0.0185791493,0.728369893 C0.0185791493,0.774760501 0.0216046328,0.826903251 0.0273194119,0.884499313 C0.0332956567,0.942356842 0.0420732597,1.00021437 0.0535028388,1.05837073 C0.0649324179,1.11652708 0.0851769403,1.17464605 0.114087024,1.23224214 C0.142997107,1.29009967 0.169255236,1.35367199 0.19245054,1.42329525 C0.273503373,1.52758075 0.366284591,1.6201005 0.470271284,1.70119069 C0.563089863,1.77077661 0.690570645,1.8057003 0.852713672,1.8057003 L2.03373194,1.8057003 L2.71125147,5.29650027 L2.97192786,6.63372266 L3.19768055,7.83195999 L3.37155196,8.71801316 L3.45835694,9.16974265 C3.48155224,9.28519626 3.52222807,9.45309141 3.5800856,9.67309196 C3.61508399,9.76617199 3.65265964,9.85297696 3.6928499,9.93376835 C3.7332269,10.0145224 3.77662939,10.0898978 3.82279589,10.1594837 C3.91531564,10.3098983 4.03129216,10.4313282 4.17023989,10.5241841 C4.21610756,10.5588837 4.26552366,10.5849924 4.31792787,10.6025476 C4.37059353,10.6199908 4.42848842,10.6344458 4.49176192,10.6459127 C4.55511013,10.6573797 4.62170792,10.6631318 4.69133119,10.6631318 L12.9413894,10.6631318 C13.2426668,10.6631318 13.4395095,10.5877564 13.5320292,10.4373791 C13.6363147,10.2870018 13.688196,10.1073783 13.688196,9.898882 C13.688196,9.47053457 13.4335332,9.2563235 12.9238715,9.2563235 L5.00437441,9.2563235 L4.76084238,7.86669691 L13.028157,7.86669691 C13.3289115,7.86669691 13.5838731,7.78560672 13.7924068,7.62350105 C13.8969537,7.54270969 13.9924616,7.42994539 14.0793039,7.28498406 C14.1658101,7.14009746 14.2441736,6.96925151 14.3137595,6.77274508 C14.3484591,6.66842224 14.441203,6.39631628 14.5916176,5.95631517 L14.956318,4.93135164 L15.2865803,3.97601137 L15.495114,3.40311348 C15.506805,3.36845126 15.5155452,3.33352757 15.5212974,3.29856654 C15.5267507,3.26390431 15.5325028,3.22595514 15.5384791,3.1858396 C15.5444927,3.14542524 15.5475181,3.10202275 15.5475181,3.05589361 C15.5589851,2.92886101 15.530075,2.80713235 15.4604144,2.6914173 L15.4604144,2.6914173 L15.4604144,2.6914173 L15.4604144,2.6914173 Z" id="Shape"></path>
                        <path d="M12.820968,11.5321153 C12.6934872,11.393205 12.5370216,11.2889195 12.3517206,11.2190721 C12.2591635,11.1843725 12.1636556,11.1581891 12.0648608,11.1407086 C11.9662901,11.123228 11.8707449,11.1144878 11.7779637,11.1144878 L11.7784866,11.1150854 C11.7091621,11.1144878 11.6426017,11.1174759 11.5789547,11.1237883 C11.5153824,11.1300634 11.4514739,11.1418291 11.3876401,11.1590108 C11.3237316,11.1758937 11.2631474,11.1961009 11.2052899,11.2195576 C11.1242371,11.2542572 11.0428854,11.2976597 10.9617952,11.3495036 C10.880705,11.4013849 10.8111191,11.4622306 10.7532616,11.5318538 C10.6142765,11.6708389 10.5100657,11.8214777 10.4404798,11.9839195 C10.3940892,12.0764019 10.3623777,12.1692205 10.3449346,12.2617403 C10.3273794,12.3542974 10.3187138,12.4470786 10.3187138,12.5395983 C10.3187138,12.7364036 10.3593896,12.9217419 10.4404798,13.0953519 C10.5100657,13.2574949 10.6142765,13.4138858 10.7532616,13.5645992 C10.8692381,13.6800528 11.0199515,13.7785862 11.2049911,13.8596017 C11.3788625,13.9406545 11.5699529,13.9813677 11.7779637,13.9813677 C11.9858997,13.9813677 12.1772516,13.9409907 12.3508989,13.8596017 C12.5362372,13.7902772 12.6923666,13.6920053 12.8198101,13.5645992 C12.9587951,13.4141472 13.0687581,13.2577563 13.1498483,13.0953519 C13.1848093,13.0145605 13.2106939,12.9247674 13.2281744,12.8261967 C13.2456923,12.7276633 13.2544326,12.6321181 13.2544326,12.5393369 C13.2544326,12.3424569 13.2193968,12.1571559 13.1498483,11.9835833 C13.0698786,11.8217391 12.9599157,11.6710257 12.820968,11.5321153 L12.820968,11.5321153 L12.820968,11.5321153 L12.820968,11.5321153 Z" id="Shape"></path>
                    </g>
                </g>
            </g>
        </g>
    </g>
</svg>
